X:117
T:Yorktown
C:W. Krug
M:2/4
L:1/8
K:D
d/e/|ff g/f/e/d/|Bc dd/f/|a>b af|fe ed/e/|ff g/f/e/d/|Bc dd/f/|
a/f/d/f/ e/A/B/c/|d2-d::A|d/c/d/f/ ag/f/|eA AA|c/B/c/d/ e/g/f/e/|
fd dA|d/c/d/f/ ag/f/|eb bd/f/|a/f/d/f/ e/A/B/c/|d2-d::A|A>B AF|A3 d|
d>e dB|d3 e/f/|gf ed|Bd Ad|c/d/e/f/ gc|d2-d:|
P:C part, 2nd Fife
F|F>G FD|F3 B|B>=c BG|G3 B/B/|ed cF|GG FF|G/G/G/A/ cA|F2-F:|
